findly-builder/apps/searchassist/src/assets/images/illustration.svg

<svg xmlns="http://www.w3.org/2000/svg" width="305" height="177"><g fill="none"><g transform="translate(12.586 .5)"><path fill="#A0616A" d="M103.949 73.196s22.777 1.1 24.15 9.066c1.371 7.967-26.62.824-26.62.824l2.47-9.89z"/><path fill="#8A959F" d="M68 47.922s3.842 1.098 6.86 7.692c3.019 6.593 9.056 12.637 9.056 12.637l24.424 4.67-4.117 12.363-23.325-3.022-14.545-8.242L68 47.922z"/><path fill="#7A7EBC" d="M68 47.922s3.842 1.098 6.86 7.692c3.019 6.593 9.056 12.637 9.056 12.637l24.424 4.67-4.117 12.363-23.325-3.022-14.545-8.242L68 47.922z" opacity=".1"/><path fill="#E5E8EC" d="M25.053 91.74h199.779v82.692H25.053z"/><path fill="#EEDEC5" d="m31.776 35.284 2.47 15.659 17.014.825-1.921-23.077z"/><path fill="#2F2E41" d="m13.802 139.817-.824 34.616h25.796l3.842-13.737 3.018 13.737h26.894s.549-39.56-2.47-39.836c-3.019-.274-56.256 5.22-56.256 5.22z"/><ellipse cx="37.265" cy="24.57" fill="#F5E9D5" rx="14.819" ry="14.835"/><path fill="#8A959F" d="m12.292 141.328 7.684-37.912L9.822 53.141l23.385-8.784 11.467-1.38 5.765-1.078 4.114 1.077s16.465 4.121 17.289 7.143c.823 3.022-3.293 27.748-3.293 27.748l-3.842 20.33 8.507 36.538s-35.4 12.088-60.373 6.593h-.549z"/><path fill="#3C3F6A" d="M22.583 67.015V77.18l32.38.044-30.733-3.341zm-2.781 28.073 40.651-5.82-40.651 11.526z" opacity=".1"/><path fill="#000" d="M84.328 68.388 79.97 84.11l7.377-15.203z" opacity=".1"/><path fill="#2F2E41" d="M49.46 9.692 52.185 8.6S46.487 2.32 38.56 2.866L40.79.408s-5.45-2.184-10.405 3.55c-2.605 3.014-5.618 6.557-7.497 10.548H19.97l1.218 2.685-4.263 2.685 4.376-.482a15.042 15.042 0 0 0-.12 4.453 5.772 5.772 0 0 0 2.109 3.77s3.38-7.004 3.38-8.096v2.73s2.724-2.457 2.724-4.095l1.486 1.911.744-3.003 9.166 3.003-1.487-2.457 5.698.819-2.23-3.003s6.441 3.549 6.69 6.552c.247 3.004 2.132 5.85 2.132 5.85s5.051-14.04-2.133-18.136z"/><path fill="#F3F3F4" d="M64.021 64.542h105.378v110.165H64.021z"/><g transform="translate(79.912 71.25)"><path fill="#8A959F" d="M52.593 4.992h12.486v1H52.593zm-47.448 0h38.707v1H5.145z"/><ellipse cx="5.145" cy="5.107" fill="#009DAB" rx="4.994" ry="5"/><ellipse cx="26.372" cy="5.107" fill="#8A959F" rx="4.994" ry="5"/><path fill="#8A959F" d="M47.598 10.107a4.997 4.997 0 0 1-4.994-5c0-2.761 2.236-5 4.994-5a4.998 4.998 0 0 1 4.995 5 5.003 5.003 0 0 1-4.995 5zm0-9.762a4.759 4.759 0 0 0-4.756 4.762 4.76 4.76 0 0 0 4.756 4.762 4.76 4.76 0 0 0 4.757-4.762A4.765 4.765 0 0 0 47.598.345zm22.476 9.762a4.997 4.997 0 0 1-4.995-5c0-2.761 2.236-5 4.995-5a4.997 4.997 0 0 1 4.994 5 5.002 5.002 0 0 1-4.994 5zm0-9.762a4.76 4.76 0 0 0-4.757 4.762c0 2.63 2.13 4.762 4.757 4.762s4.756-2.132 4.756-4.762A4.765 4.765 0 0 0 70.074.345z"/><path fill="#FFF" d="m2.4 5.045.806-.625 1.416 1.602L7.93 2.607l.713.736-4.13 4.264z"/></g><path fill="#8A959F" d="M74.998 88.718h77.936v10.989H74.998zm13.398 29.121h51.041v5.495H88.396zm.098 9.615h51.041v5.495H88.494zm.099 9.616h25.52v5.495h-25.52z"/><path fill="#009DAB" d="M88 151.5h19v5.495H88z"/><path fill="#EEDEC5" d="M56.474 78.416s23.875-3.571 27.442 1.648c3.568 5.22-25.247 7.967-25.247 7.967l-2.195-9.615z"/><path fill="#8A959F" d="M12.567 52.867h-1.72a2.802 2.802 0 0 0-1.909.743c-1.632 1.517-5.083 5.433-6.525 12.443C.493 75.394-2.801 93.526 4.608 94.9c7.41 1.373 55.982-5.22 55.982-5.22l-3.567-12.638-35.126.275s.549-6.044-.549-9.89c-1.098-3.846-8.781-14.56-8.781-14.56z"/></g><path fill="#8A959F" d="M36.586 176.5h231v-2h-231zm268-2h-27v2h27zm-277 0h-27v2h27z"/></g></svg>

<svg xmlns="http://www.w3.org/2000/svg" width="305" height="177" viewBox="0 0 305 177">
    <g fill="none">
        <g transform="translate(12.586 .5)">
            <path fill="#A0616A" d="M103.949 73.196s22.777 1.1 24.15 9.066c1.371 7.967-26.62.824-26.62.824l2.47-9.89z"/>
            <path fill="#8A959F" d="M68 47.922s3.842 1.098 6.86 7.692c3.019 6.593 9.056 12.637 9.056 12.637l24.424 4.67-4.117 12.363-23.325-3.022-14.545-8.242L68 47.922z"/>
            <path fill="#7A7EBC" d="M68 47.922s3.842 1.098 6.86 7.692c3.019 6.593 9.056 12.637 9.056 12.637l24.424 4.67-4.117 12.363-23.325-3.022-14.545-8.242L68 47.922z" opacity=".1"/>
            <path fill="#E5E8EC" d="M25.053 91.74H224.832V174.432H25.053z"/>
            <path fill="#EEDEC5" d="M31.776 35.284L34.246 50.943 51.26 51.768 49.339 28.691z"/>
            <path fill="#2F2E41" d="M13.802 139.817l-.824 34.616h25.796l3.842-13.737 3.018 13.737h26.894s.549-39.56-2.47-39.836c-3.019-.274-56.256 5.22-56.256 5.22z"/>
            <ellipse cx="37.265" cy="24.57" fill="#F5E9D5" rx="14.819" ry="14.835"/>
            <path fill="#8A959F" d="M12.292 141.328l7.684-37.912L9.822 53.141l23.385-8.784 11.467-1.38 5.765-1.078 4.114 1.077s16.465 4.121 17.289 7.143c.823 3.022-3.293 27.748-3.293 27.748l-3.842 20.33 8.507 36.538s-35.4 12.088-60.373 6.593h-.549z"/>
            <path fill="#3C3F6A" d="M22.583 67.015L22.583 77.18 54.963 77.224 24.23 73.883zM19.802 95.088L60.453 89.268 19.802 100.794z" opacity=".1"/>
            <path fill="#000" d="M84.328 68.388L79.97 84.11 87.347 68.907z" opacity=".1"/>
            <path fill="#2F2E41" d="M49.46 9.692L52.185 8.6S46.487 2.32 38.56 2.866L40.79.408s-5.45-2.184-10.405 3.55c-2.605 3.014-5.618 6.557-7.497 10.548H19.97l1.218 2.685-4.263 2.685 4.376-.482c-.261 1.47-.301 2.97-.12 4.453.189 1.482.944 2.834 2.109 3.77 0 0 3.38-7.004 3.38-8.096v2.73s2.724-2.457 2.724-4.095l1.486 1.911.744-3.003 9.166 3.003-1.487-2.457 5.698.819-2.23-3.003s6.441 3.549 6.69 6.552c.247 3.004 2.132 5.85 2.132 5.85s5.051-14.04-2.133-18.136z"/>
            <path fill="#F3F3F4" d="M64.021 64.542H169.399V174.707H64.021z"/>
            <g transform="translate(79.912 71.25)">
                <path fill="#8A959F" d="M52.593 4.992H65.07900000000001V5.992H52.593zM5.145 4.992H43.852000000000004V5.992H5.145z"/>
                <ellipse cx="5.145" cy="5.107" fill="#009DAB" rx="4.994" ry="5"/>
                <ellipse cx="26.372" cy="5.107" fill="#8A959F" rx="4.994" ry="5"/>
                <path fill="#8A959F" d="M47.598 10.107c-2.758 0-4.994-2.238-4.994-5 0-2.761 2.236-5 4.994-5 2.759 0 4.995 2.239 4.995 5-.003 2.76-2.237 4.997-4.995 5zm0-9.762c-2.627 0-4.756 2.132-4.756 4.762 0 2.63 2.13 4.762 4.756 4.762 2.627 0 4.757-2.132 4.757-4.762-.003-2.628-2.13-4.759-4.757-4.762zM70.074 10.107c-2.759 0-4.995-2.238-4.995-5 0-2.761 2.236-5 4.995-5 2.758 0 4.994 2.239 4.994 5-.003 2.76-2.237 4.997-4.994 5zm0-9.762c-2.627 0-4.757 2.132-4.757 4.762 0 2.63 2.13 4.762 4.757 4.762s4.756-2.132 4.756-4.762C74.827 2.48 72.7.348 70.074.345z"/>
                <path fill="#FFF" d="M2.4 5.045L3.206 4.42 4.622 6.022 7.93 2.607 8.643 3.343 4.513 7.607z"/>
            </g>
            <path fill="#8A959F" d="M74.998 88.718H152.93400000000003V99.70700000000001H74.998zM88.396 117.839H139.437V123.334H88.396zM88.494 127.454H139.535V132.94899999999998H88.494zM88.593 137.07H114.113V142.565H88.593z"/>
            <path fill="#009DAB" d="M88 151.5H107V156.995H88z"/>
            <path fill="#EEDEC5" d="M56.474 78.416s23.875-3.571 27.442 1.648c3.568 5.22-25.247 7.967-25.247 7.967l-2.195-9.615z"/>
            <path fill="#8A959F" d="M12.567 52.867h-1.72c-.707-.002-1.389.263-1.909.743-1.632 1.517-5.083 5.433-6.525 12.443C.493 75.394-2.801 93.526 4.608 94.9c7.41 1.373 55.982-5.22 55.982-5.22l-3.567-12.638-35.126.275s.549-6.044-.549-9.89c-1.098-3.846-8.781-14.56-8.781-14.56z"/>
        </g>
        <path fill="#8A959F" d="M36.586 176.5L267.586 176.5 267.586 174.5 36.586 174.5zM304.586 174.5L277.586 174.5 277.586 176.5 304.586 176.5zM27.586 174.5L.586 174.5.586 176.5 27.586 176.5z"/>
    </g>
</svg>
